UI/POI/SVG/nature_outline_24px.svg

<svg width="24" height="24" viewBox="0 0 24 24" fill="none" xmlns="http://www.w3.org/2000/svg">
<path d="M19.9999 6V8C19.9999 9.1819 19.7671 10.3522 19.3148 11.4442C18.8626 12.5361 18.1996 13.5282 17.3639 14.364C16.5282 15.1997 15.536 15.8626 14.4441 16.3149C13.3521 16.7672 12.1818 17 10.9999 17H8.99993V15C8.99993 12.6131 9.94814 10.3239 11.636 8.63604C13.3238 6.94821 15.613 6 17.9999 6H19.9999ZM21.9999 4H17.9999C15.0825 4 12.2847 5.15893 10.2218 7.22183C8.15885 9.28473 6.99993 12.0826 6.99993 15V17.58L3.99993 20.58L5.40993 22L8.40993 19H10.9999C13.9173 19 16.7152 17.8411 18.7781 15.7782C20.841 13.7153 21.9999 10.9174 21.9999 8V4ZM8.04993 2L5.21993 4.83C3.49242 6.55825 2.38955 8.81252 2.08534 11.2371C1.78114 13.6617 2.29292 16.1185 3.53993 18.22V18.22L4.99993 16.75L4.23993 14.69C3.88349 13.1947 3.91601 11.6329 4.33439 10.1537C4.75277 8.67451 5.54307 7.32712 6.62993 6.24L8.04993 4.83L8.91993 5.7C9.39834 5.22995 9.91329 4.7986 10.4599 4.41L8.04993 2Z" fill="#0F1621"/>
</svg>

<svg xmlns="http://www.w3.org/2000/svg" width="24" height="24" viewBox="0 0 24 24"><rect width="24" height="24" style="fill:none"/><path d="M20,6V8a9,9,0,0,1-9,9H9V15a9,9,0,0,1,9-9h2m2-2H18A11,11,0,0,0,7,15v2.58l-3,3L5.41,22l3-3H11A11,11,0,0,0,22,8V4ZM8.05,2,5.22,4.83A11,11,0,0,0,3.54,18.22l0,0L5,16.75l-.76-2.06A9,9,0,0,1,6.63,6.24L8.05,4.83l.87.87a12.68,12.68,0,0,1,1.54-1.29Z"/></svg>
